assets/facebook-logo-white.svg

<svg width="97" height="97" viewBox="0 0 97 97" fill="none" xmlns="http://www.w3.org/2000/svg">
<g clip-path="url(#clip0)">
<path d="M72.0889 0.02L59.6239 0C45.6199 0 36.5699 9.285 36.5699 23.656V34.563H24.0369C22.9539 34.563 22.0769 35.441 22.0769 36.524V52.327C22.0769 53.41 22.9549 54.287 24.0369 54.287H36.5699V94.163C36.5699 95.246 37.4469 96.123 38.5299 96.123H54.8819C55.9649 96.123 56.8419 95.245 56.8419 94.163V54.287H71.4959C72.5789 54.287 73.4559 53.41 73.4559 52.327L73.4619 36.524C73.4619 36.004 73.2549 35.506 72.8879 35.138C72.5209 34.77 72.0209 34.563 71.5009 34.563H56.8419V25.317C56.8419 20.873 57.9009 18.617 63.6899 18.617L72.0869 18.614C73.1689 18.614 74.0459 17.736 74.0459 16.654V1.98C74.0459 0.899 73.1699 0.022 72.0889 0.02Z" fill="white"/>
</g>
<defs>
<clipPath id="clip0">
<rect width="96.124" height="96.123" fill="white"/>
</clipPath>
</defs>
</svg>

<svg fill="none" height="97" viewBox="0 0 97 97" width="97" xmlns="http://www.w3.org/2000/svg" xmlns:xlink="http://www.w3.org/1999/xlink"><clipPath id="a"><path d="m0 0h96.124v96.123h-96.124z"/></clipPath><g clip-path="url(#a)"><path d="m72.0889.02-12.465-.02c-14.004 0-23.054 9.285-23.054 23.656v10.907h-12.533c-1.083 0-1.96.878-1.96 1.961v15.803c0 1.083.878 1.96 1.96 1.96h12.533v39.876c0 1.083.877 1.96 1.96 1.96h16.352c1.083 0 1.96-.878 1.96-1.96v-39.876h14.654c1.083 0 1.96-.877 1.96-1.96l.006-15.803c0-.52-.207-1.018-.574-1.386s-.867-.575-1.387-.575h-14.659v-9.246c0-4.444 1.059-6.7 6.848-6.7l8.397-.003c1.082 0 1.959-.878 1.959-1.96v-14.674c0-1.081-.876-1.958-1.957-1.96z" fill="#fff"/></g></svg>
